BW Type 1.lrtemplate
s = {
	id = "6260F142-8499-483E-89B7-6F8534DD4E36",
	internalName = "BW Type 1",
	title = "BW Type 1",
	type = "Develop",
	value = {
		settings = {
			Blacks2012 = 40,
			Clarity2012 = 100,
			Contrast2012 = 10,
			ConvertToGrayscale = false,
			EnableColorAdjustments = true,
			Exposure2012 = -1.3,
			Highlights2012 = 5,
			HueAdjustmentAqua = 0,
			HueAdjustmentBlue = 0,
			HueAdjustmentGreen = 0,
			HueAdjustmentMagenta = 0,
			HueAdjustmentOrange = 0,
			HueAdjustmentPurple = 0,
			HueAdjustmentRed = 0,
			HueAdjustmentYellow = 0,
			LuminanceAdjustmentAqua = 0,
			LuminanceAdjustmentBlue = 0,
			LuminanceAdjustmentGreen = 0,
			LuminanceAdjustmentMagenta = 0,
			LuminanceAdjustmentOrange = 0,
			LuminanceAdjustmentPurple = 0,
			LuminanceAdjustmentRed = 0,
			LuminanceAdjustmentYellow = 0,
			ParametricDarks = 23,
			ParametricHighlightSplit = 75,
			ParametricHighlights = 41,
			ParametricLights = 11,
			ParametricMidtoneSplit = 50,
			ParametricShadowSplit = 25,
			ParametricShadows = 0,
			ProcessVersion = "6.7",
			Saturation = -100,
			SaturationAdjustmentAqua = 0,
			SaturationAdjustmentBlue = 0,
			SaturationAdjustmentGreen = 0,
			SaturationAdjustmentMagenta = 0,
			SaturationAdjustmentOrange = 0,
			SaturationAdjustmentPurple = 0,
			SaturationAdjustmentRed = 0,
			SaturationAdjustmentYellow = 0,
			Shadows2012 = 60,
			Temperature = 5650,
			Tint = -2,
			ToneCurveName2012 = "Linear",
			ToneCurvePV2012 = {
				0,
				0,
				255,
				255,
			},
			ToneCurvePV2012Blue = {
				0,
				0,
				255,
				255,
			},
			ToneCurvePV2012Green = {
				0,
				0,
				255,
				255,
			},
			ToneCurvePV2012Red = {
				0,
				0,
				255,
				255,
			},
			Vibrance = -100,
			WhiteBalance = "Custom",
			Whites2012 = 65,
		},
		uuid = "D42F5989-78F6-4B56-96D2-3DF64E66B3E0",
	},
	version = 0,
}
