Full Type 2.lrtemplate
s = {
	id = "164EF1AE-DE22-48A2-87CF-B4ED0558599C",
	internalName = "Full Type 2",
	title = "Full Type 2",
	type = "Develop",
	value = {
		settings = {
			Blacks2012 = 5,
			Clarity2012 = 100,
			Contrast2012 = 25,
			ConvertToGrayscale = false,
			EnableColorAdjustments = true,
			EnableEffects = true,
			EnableGradientBasedCorrections = true,
			EnableSplitToning = true,
			Exposure2012 = 0.3,
			GradientBasedCorrections = {
				{
					CorrectionActive = true,
					CorrectionAmount = 1,
					CorrectionID = "27D13C39-D3D9-4BEA-B9F5-A765F6604F7B",
					CorrectionMasks = {
						{
							FullX = 0.491005,
							FullY = -0.004762,
							MaskID = "AFD556F1-9E64-431A-8FDD-C9655609DBCB",
							MaskValue = 1,
							What = "Mask/Gradient",
							ZeroX = 0.488889,
							ZeroY = 0.493651,
						},
					},
					CorrectionReferenceX = 0.489947,
					CorrectionReferenceY = 0.244445,
					LocalBrightness = 0,
					LocalClarity = 0,
					LocalClarity2012 = 0,
					LocalContrast = 0,
					LocalContrast2012 = 0,
					LocalExposure = -0.225,
					LocalExposure2012 = -0.225,
					LocalHighlights2012 = 0,
					LocalLuminanceNoise = 0,
					LocalMoire = 0,
					LocalSaturation = 0,
					LocalShadows2012 = 0,
					LocalSharpness = 0,
					LocalTemperature = 0,
					LocalTint = 0,
					LocalToningHue = 27,
					LocalToningSaturation = 0,
					What = "Correction",
				},
				{
					CorrectionActive = true,
					CorrectionAmount = 1,
					CorrectionID = "CF5597E0-CF18-46EA-98D3-20B6C038644F",
					CorrectionMasks = {
						{
							FullX = -0.050321,
							FullY = 0.989048,
							MaskID = "6CEFA1F1-B66A-4EDE-BEE4-5C27DCF71B69",
							MaskValue = 1,
							What = "Mask/Gradient",
							ZeroX = 0.483531,
							ZeroY = 0.965787,
						},
					},
					CorrectionReferenceX = 0.216605,
					CorrectionReferenceY = 0.977418,
					LocalBrightness = 0,
					LocalClarity = 0,
					LocalClarity2012 = 0,
					LocalContrast = 0,
					LocalContrast2012 = 0,
					LocalExposure = -0.980861,
					LocalExposure2012 = -0.980861,
					LocalHighlights2012 = 0,
					LocalLuminanceNoise = 0,
					LocalMoire = 0,
					LocalSaturation = -0.004785,
					LocalShadows2012 = 0,
					LocalSharpness = 0,
					LocalTemperature = 0,
					LocalTint = 0,
					LocalToningHue = 0,
					LocalToningSaturation = 0,
					What = "Correction",
				},
				{
					CorrectionActive = true,
					CorrectionAmount = 1,
					CorrectionID = "C3173759-5A57-49B3-A0E5-2A6420A67D05",
					CorrectionMasks = {
						{
							FullX = 0.708418,
							FullY = 1.01491,
							MaskID = "FDC5B3F5-0D25-4C23-817A-2DCF68F426E9",
							MaskValue = 1,
							What = "Mask/Gradient",
							ZeroX = 0.709674,
							ZeroY = 0.951757,
						},
					},
					CorrectionReferenceX = 0.709046,
					CorrectionReferenceY = 0.983333,
					LocalBrightness = 0,
					LocalClarity = 0,
					LocalClarity2012 = 0,
					LocalContrast = 0,
					LocalContrast2012 = 0,
					LocalExposure = -1,
					LocalExposure2012 = -1,
					LocalHighlights2012 = 0,
					LocalLuminanceNoise = 0,
					LocalMoire = 0,
					LocalSaturation = -0.004785,
					LocalShadows2012 = 0,
					LocalSharpness = 0,
					LocalTemperature = 0,
					LocalTint = 0,
					LocalToningHue = 0,
					LocalToningSaturation = 0,
					What = "Correction",
				},
				{
					CorrectionActive = true,
					CorrectionAmount = 1,
					CorrectionID = "E28BAA2C-6D7D-4596-AC8C-73F3AB6EEC58",
					CorrectionMasks = {
						{
							FullX = 1.0084,
							FullY = 0.381226,
							MaskID = "514CB35E-CABF-4ECF-990E-24171BEF87AE",
							MaskValue = 1,
							What = "Mask/Gradient",
							ZeroX = 0.78518,
							ZeroY = 0.407146,
						},
					},
					CorrectionReferenceX = 0.89679,
					CorrectionReferenceY = 0.394186,
					LocalBrightness = 0,
					LocalClarity = 0,
					LocalClarity2012 = 0,
					LocalContrast = 0,
					LocalContrast2012 = 0,
					LocalExposure = -0.425837,
					LocalExposure2012 = -0.425837,
					LocalHighlights2012 = 0,
					LocalLuminanceNoise = 0,
					LocalMoire = 0,
					LocalSaturation = -0.004785,
					LocalShadows2012 = 0,
					LocalSharpness = 0,
					LocalTemperature = 0,
					LocalTint = 0,
					LocalToningHue = 0,
					LocalToningSaturation = 0,
					What = "Correction",
				},
				{
					CorrectionActive = true,
					CorrectionAmount = 1,
					CorrectionID = "9A9C4134-05D5-445D-AB0C-96367B3501B4",
					CorrectionMasks = {
						{
							FullX = 0.619938,
							FullY = -0.192706,
							MaskID = "9E5F5E7A-4282-48AC-9156-FB22844836DD",
							MaskValue = 1,
							What = "Mask/Gradient",
							ZeroX = 0.574832,
							ZeroY = 0.51992,
						},
					},
					CorrectionReferenceX = 0.597385,
					CorrectionReferenceY = 0.163607,
					LocalBrightness = 0,
					LocalClarity = 0,
					LocalClarity2012 = 0,
					LocalContrast = 0,
					LocalContrast2012 = 0,
					LocalExposure = -0.5311,
					LocalExposure2012 = -0.5311,
					LocalHighlights2012 = 0,
					LocalLuminanceNoise = 0,
					LocalMoire = 0,
					LocalSaturation = -0.004785,
					LocalShadows2012 = 0,
					LocalSharpness = 0,
					LocalTemperature = 0,
					LocalTint = 0,
					LocalToningHue = 0,
					LocalToningSaturation = 0,
					What = "Correction",
				},
				{
					CorrectionActive = true,
					CorrectionAmount = 1,
					CorrectionID = "0B5C5F7B-77A9-46A2-BA98-69FADB6CF431",
					CorrectionMasks = {
						{
							FullX = 1.01572,
							FullY = 0.989608,
							MaskID = "DBE84B47-EDF3-4468-8B96-17C81057ED92",
							MaskValue = 1,
							What = "Mask/Gradient",
							ZeroX = 0.942351,
							ZeroY = 0.888801,
						},
					},
					CorrectionReferenceX = 0.979035,
					CorrectionReferenceY = 0.939205,
					LocalBrightness = 0.454545,
					LocalClarity = -0.655502,
					LocalClarity2012 = -0.655502,
					LocalContrast = 0,
					LocalContrast2012 = 0,
					LocalExposure = -0.349282,
					LocalExposure2012 = 0.105263,
					LocalHighlights2012 = 0,
					LocalLuminanceNoise = 0,
					LocalMoire = 0,
					LocalSaturation = -0.358852,
					LocalShadows2012 = 0,
					LocalSharpness = -0.38756,
					LocalTemperature = 0,
					LocalTint = 0,
					LocalToningHue = 0,
					LocalToningSaturation = 0,
					What = "Correction",
				},
				{
					CorrectionActive = true,
					CorrectionAmount = 1,
					CorrectionID = "43574B0A-0920-4D19-8643-824BC2E740E8",
					CorrectionMasks = {
						{
							FullX = 0.847222,
							FullY = 1.07778,
							MaskID = "1DD3D452-6882-4789-9CA2-4DB20F4607A2",
							MaskValue = 1,
							What = "Mask/Gradient",
							ZeroX = 0.822222,
							ZeroY = 0.830556,
						},
					},
					CorrectionReferenceX = 0.834722,
					CorrectionReferenceY = 0.954168,
					LocalBrightness = -0.425837,
					LocalClarity = 0,
					LocalClarity2012 = 0,
					LocalContrast = -0.5311,
					LocalContrast2012 = -0.5311,
					LocalExposure = -0.397129,
					LocalExposure2012 = -0.822966,
					LocalHighlights2012 = 0,
					LocalLuminanceNoise = 0,
					LocalMoire = 0,
					LocalSaturation = -0.004785,
					LocalShadows2012 = 0,
					LocalSharpness = 0,
					LocalTemperature = 0,
					LocalTint = 0,
					LocalToningHue = 0,
					LocalToningSaturation = 0,
					What = "Correction",
				},
			},
			GrainAmount = 68,
			GrainFrequency = 50,
			GrainSize = 50,
			Highlights2012 = -100,
			HueAdjustmentAqua = 0,
			HueAdjustmentBlue = 0,
			HueAdjustmentGreen = 0,
			HueAdjustmentMagenta = 0,
			HueAdjustmentOrange = 0,
			HueAdjustmentPurple = 0,
			HueAdjustmentRed = 0,
			HueAdjustmentYellow = 0,
			LuminanceAdjustmentAqua = 0,
			LuminanceAdjustmentBlue = 0,
			LuminanceAdjustmentGreen = 0,
			LuminanceAdjustmentMagenta = 0,
			LuminanceAdjustmentOrange = 0,
			LuminanceAdjustmentPurple = 0,
			LuminanceAdjustmentRed = 0,
			LuminanceAdjustmentYellow = 0,
			ParametricDarks = 0,
			ParametricHighlightSplit = 75,
			ParametricHighlights = -100,
			ParametricLights = -6,
			ParametricMidtoneSplit = 50,
			ParametricShadowSplit = 25,
			ParametricShadows = -5,
			PostCropVignetteAmount = 18,
			PostCropVignetteFeather = 50,
			PostCropVignetteHighlightContrast = 0,
			PostCropVignetteMidpoint = 50,
			PostCropVignetteRoundness = 0,
			PostCropVignetteStyle = 1,
			ProcessVersion = "6.7",
			Saturation = -100,
			SaturationAdjustmentAqua = 0,
			SaturationAdjustmentBlue = 0,
			SaturationAdjustmentGreen = 0,
			SaturationAdjustmentMagenta = 0,
			SaturationAdjustmentOrange = 0,
			SaturationAdjustmentPurple = 0,
			SaturationAdjustmentRed = 0,
			SaturationAdjustmentYellow = 0,
			Shadows2012 = 80,
			SplitToningBalance = 0,
			SplitToningHighlightHue = 30,
			SplitToningHighlightSaturation = 25,
			SplitToningShadowHue = 30,
			SplitToningShadowSaturation = 40,
			Temperature = 6500,
			Tint = -2,
			ToneCurveName2012 = "Linear",
			ToneCurvePV2012 = {
				0,
				0,
				255,
				255,
			},
			ToneCurvePV2012Blue = {
				0,
				0,
				255,
				255,
			},
			ToneCurvePV2012Green = {
				0,
				0,
				255,
				255,
			},
			ToneCurvePV2012Red = {
				0,
				0,
				255,
				255,
			},
			Vibrance = -100,
			WhiteBalance = "Custom",
			Whites2012 = 65,
			orientation = "AB",
		},
		uuid = "BC1E2A90-5940-4164-81D6-CD7952C44416",
	},
	version = 0,
}
