Modern Type 12.lrtemplate
s = {
	id = "97749A23-8E17-490F-8075-D4A726E8DA50",
	internalName = "Modern Type 12",
	title = "Modern Type 12",
	type = "Develop",
	value = {
		settings = {
			Blacks2012 = 10,
			BlueHue = 0,
			BlueSaturation = 0,
			CameraProfile = "Adobe Standard",
			Clarity2012 = -10,
			Contrast2012 = 40,
			ConvertToGrayscale = false,
			EnableCalibration = true,
			EnableColorAdjustments = true,
			EnableDetail = true,
			Exposure2012 = 0.1,
			GreenHue = 0,
			GreenSaturation = 0,
			Highlights2012 = 0,
			HueAdjustmentAqua = -20,
			HueAdjustmentBlue = -15,
			HueAdjustmentGreen = 0,
			HueAdjustmentMagenta = 0,
			HueAdjustmentOrange = 0,
			HueAdjustmentPurple = 0,
			HueAdjustmentRed = 15,
			HueAdjustmentYellow = -20,
			LuminanceAdjustmentAqua = 0,
			LuminanceAdjustmentBlue = 0,
			LuminanceAdjustmentGreen = 0,
			LuminanceAdjustmentMagenta = 0,
			LuminanceAdjustmentOrange = 0,
			LuminanceAdjustmentPurple = 0,
			LuminanceAdjustmentRed = 0,
			LuminanceAdjustmentYellow = 0,
			ParametricDarks = 3,
			ParametricHighlightSplit = 75,
			ParametricHighlights = 0,
			ParametricLights = 30,
			ParametricMidtoneSplit = 50,
			ParametricShadowSplit = 25,
			ParametricShadows = -31,
			ProcessVersion = "6.7",
			RedHue = 0,
			RedSaturation = 0,
			Saturation = 10,
			SaturationAdjustmentAqua = 0,
			SaturationAdjustmentBlue = 0,
			SaturationAdjustmentGreen = 0,
			SaturationAdjustmentMagenta = 0,
			SaturationAdjustmentOrange = 0,
			SaturationAdjustmentPurple = 0,
			SaturationAdjustmentRed = 0,
			SaturationAdjustmentYellow = 0,
			ShadowTint = 0,
			Shadows2012 = 20,
			SharpenDetail = 25,
			SharpenEdgeMasking = 0,
			SharpenRadius = 1,
			Sharpness = 40,
			Temperature = 5310,
			Tint = 0,
			ToneCurveName2012 = "Linear",
			ToneCurvePV2012 = {
				0,
				0,
				255,
				255,
			},
			ToneCurvePV2012Blue = {
				0,
				0,
				255,
				255,
			},
			ToneCurvePV2012Green = {
				0,
				0,
				255,
				255,
			},
			ToneCurvePV2012Red = {
				0,
				0,
				255,
				255,
			},
			Vibrance = 40,
			WhiteBalance = "Custom",
			Whites2012 = 0,
		},
		uuid = "A36CBACF-A2D7-42DE-A58E-CA827355EC78",
	},
	version = 0,
}
