Vintage Type 5.lrtemplate
s = {
	id = "60CBDC3F-A086-4E66-83E5-59D0CE6D2256",
	internalName = "Vintage Type 5",
	title = "Vintage Type 5",
	type = "Develop",
	value = {
		settings = {
			Blacks2012 = -30,
			Clarity2012 = -35,
			ColorNoiseReduction = 25,
			ColorNoiseReductionDetail = 50,
			Contrast2012 = 50,
			ConvertToGrayscale = false,
			EnableColorAdjustments = true,
			EnableDetail = true,
			EnableSplitToning = true,
			Exposure2012 = 0.5,
			Highlights2012 = 20,
			HueAdjustmentAqua = 30,
			HueAdjustmentBlue = 30,
			HueAdjustmentGreen = 0,
			HueAdjustmentMagenta = 0,
			HueAdjustmentOrange = 0,
			HueAdjustmentPurple = 0,
			HueAdjustmentRed = 0,
			HueAdjustmentYellow = 0,
			LuminanceAdjustmentAqua = -35,
			LuminanceAdjustmentBlue = -35,
			LuminanceAdjustmentGreen = 0,
			LuminanceAdjustmentMagenta = 0,
			LuminanceAdjustmentOrange = 0,
			LuminanceAdjustmentPurple = 0,
			LuminanceAdjustmentRed = 0,
			LuminanceAdjustmentYellow = 0,
			LuminanceNoiseReductionContrast = 0,
			LuminanceNoiseReductionDetail = 50,
			LuminanceSmoothing = 0,
			ParametricDarks = -12,
			ParametricHighlightSplit = 75,
			ParametricHighlights = 0,
			ParametricLights = 40,
			ParametricMidtoneSplit = 50,
			ParametricShadowSplit = 25,
			ParametricShadows = -32,
			ProcessVersion = "6.7",
			Saturation = 0,
			SaturationAdjustmentAqua = 45,
			SaturationAdjustmentBlue = 45,
			SaturationAdjustmentGreen = 0,
			SaturationAdjustmentMagenta = 0,
			SaturationAdjustmentOrange = 0,
			SaturationAdjustmentPurple = 0,
			SaturationAdjustmentRed = 0,
			SaturationAdjustmentYellow = 0,
			Shadows2012 = 20,
			SharpenDetail = 25,
			SharpenEdgeMasking = 0,
			SharpenRadius = 1,
			Sharpness = 25,
			SplitToningBalance = 0,
			SplitToningHighlightHue = 60,
			SplitToningHighlightSaturation = 20,
			SplitToningShadowHue = 0,
			SplitToningShadowSaturation = 0,
			Temperature = 23171,
			Tint = 150,
			ToneCurveName2012 = "Linear",
			ToneCurvePV2012 = {
				0,
				0,
				255,
				255,
			},
			ToneCurvePV2012Blue = {
				0,
				0,
				255,
				255,
			},
			ToneCurvePV2012Green = {
				0,
				0,
				255,
				255,
			},
			ToneCurvePV2012Red = {
				0,
				0,
				255,
				255,
			},
			Vibrance = -25,
			WhiteBalance = "Custom",
			Whites2012 = -65,
		},
		uuid = "FAB3FECF-92C5-4659-87C5-57AA8A6366F1",
	},
	version = 0,
}
